src/images/trading_app/header/statement/ic-statement-active-light.svg

<?xml version="1.0" encoding="UTF-8"?>
<svg width="16px" height="16px" viewBox="0 0 16 16" version="1.1" xmlns="http://www.w3.org/2000/svg" xmlns:xlink="http://www.w3.org/1999/xlink">
    <!-- Generator: Sketch 49 (51002) - http://www.bohemiancoding.com/sketch -->
    <title>icons/system/binary/header/statement/ic-statement-active-light</title>
    <desc>Created with Sketch.</desc>
    <defs></defs>
    <g id="icons/system/binary/header/statement/ic-statement-active-light" stroke="none" stroke-width="1" fill="none" fill-rule="evenodd">
        <g id="icons/normal/statement">
            <g id="rec-statement-body" fill="#2A3052">
                <path d="M1,0 L8.99668846,0 L13,4 L13,16 L1,16 C0.44771525,16 6.76353751e-17,15.5522847 0,15 L0,1 C-6.76353751e-17,0.44771525 0.44771525,1.01453063e-16 1,0 Z" id="rec-statement-1"></path>
                <path d="M14,6 L15,6 C15.5522847,6 16,6.44771525 16,7 L16,14 C16,15.1045695 15.1045695,16 14,16 L14,6 Z" id="rec-statement-2"></path>
            </g>
            <path d="M3.5,5 L9.5,5 C9.77614237,5 10,5.22385763 10,5.5 C10,5.77614237 9.77614237,6 9.5,6 L3.5,6 C3.22385763,6 3,5.77614237 3,5.5 C3,5.22385763 3.22385763,5 3.5,5 Z M3.5,7 L9.5,7 C9.77614237,7 10,7.22385763 10,7.5 C10,7.77614237 9.77614237,8 9.5,8 L3.5,8 C3.22385763,8 3,7.77614237 3,7.5 C3,7.22385763 3.22385763,7 3.5,7 Z M3.5,9 L9.5,9 C9.77614237,9 10,9.22385763 10,9.5 C10,9.77614237 9.77614237,10 9.5,10 L3.5,10 C3.22385763,10 3,9.77614237 3,9.5 C3,9.22385763 3.22385763,9 3.5,9 Z M3.5,11 L6.5,11 C6.77614237,11 7,11.2238576 7,11.5 C7,11.7761424 6.77614237,12 6.5,12 L3.5,12 C3.22385763,12 3,11.7761424 3,11.5 C3,11.2238576 3.22385763,11 3.5,11 Z" id="rec-statement-content" fill="#FFFFFF"></path>
        </g>
    </g>
</svg>

<svg width="16" height="16" viewBox="0 0 16 16" xmlns="http://www.w3.org/2000/svg"><title>icons/system/binary/header/statement/ic-statement-active-light</title><g fill="none" fill-rule="evenodd"><g fill="#2A3052"><path d="M1 0h7.997L13 4v12H1a1 1 0 0 1-1-1V1a1 1 0 0 1 1-1zM14 6h1a1 1 0 0 1 1 1v7a2 2 0 0 1-2 2V6z"/></g><path d="M3.5 5h6a.5.5 0 0 1 0 1h-6a.5.5 0 0 1 0-1zm0 2h6a.5.5 0 0 1 0 1h-6a.5.5 0 0 1 0-1zm0 2h6a.5.5 0 0 1 0 1h-6a.5.5 0 0 1 0-1zm0 2h3a.5.5 0 1 1 0 1h-3a.5.5 0 1 1 0-1z" fill="#FFF"/></g></svg>
